X: 16714
T: Happy To Meet, Sorry To Part
R: jig
M: 6/8
K: Gmajor
|:dBB BAB|GEF G2A|Bee dBA|Bef gfe|
dBB BAB|GEF G2A|Bee dBA|BGG G3:|
|:gag fed|Bdd def|gag fed|Bee e2f|
gag fed|Bdd def|gfg aga|bgg g3:|

